Sources/FrostedUI/Resources/Icons.xcassets/messageEdit20.imageset/message-edit-20.svg

<svg width="20" height="20" viewBox="0 0 20 20" fill="none" xmlns="http://www.w3.org/2000/svg" data-fui-icon="true">
  <path
    d="M10 2.37514C10.4141 2.37528 10.75 2.71101 10.75 3.12514C10.7499 3.53921 10.4141 3.87501 10 3.87514H3.95898C3.45272 3.87514 3.04199 4.28588 3.04199 4.79214V13.5421C3.04225 14.0482 3.45287 14.4582 3.95898 14.4582H7.20996C7.58181 14.4582 7.94253 14.5894 8.22754 14.8283L9.94824 16.2707C9.97878 16.2961 10.0236 16.2971 10.0547 16.2716L11.8037 14.8224C12.0877 14.5872 12.445 14.4582 12.8135 14.4582H16.042C16.548 14.458 16.9587 14.0481 16.959 13.5421V9.00014C16.959 8.58593 17.2948 8.25014 17.709 8.25014C18.1229 8.25045 18.459 8.58612 18.459 9.00014V13.5421C18.4587 14.8766 17.3764 15.958 16.042 15.9582H12.8135C12.7941 15.9582 12.7754 15.9655 12.7607 15.9777L11.0117 17.4259C10.4233 17.9134 9.5702 17.911 8.98438 17.4201L7.26367 15.9777C7.24877 15.9653 7.22941 15.9582 7.20996 15.9582H3.95898C2.62446 15.9582 1.54225 14.8766 1.54199 13.5421V4.79214C1.54199 3.45745 2.6243 2.37514 3.95898 2.37514H10ZM5.9375 8.31264C6.40905 8.31282 6.79102 8.69554 6.79102 9.16714C6.79076 9.63852 6.4089 10.0205 5.9375 10.0207C5.46595 10.0207 5.08326 9.63862 5.08301 9.16714C5.08301 8.69543 5.4658 8.31264 5.9375 8.31264ZM10 8.31264C10.4717 8.31264 10.8545 8.69543 10.8545 9.16714C10.8542 9.63862 10.4715 10.0207 10 10.0207C9.52845 10.0207 9.14576 9.63862 9.14551 9.16714C9.14551 8.69544 9.5283 8.31265 10 8.31264ZM15.3262 1.11343C16.2507 0.189138 17.7493 0.189139 18.6738 1.11343C19.5982 2.03792 19.5991 3.53752 18.6748 4.46206L15.4531 7.68276C15.0117 8.12418 14.433 8.40282 13.8125 8.47182L12.9297 8.56948C11.9427 8.67897 11.1083 7.84457 11.2178 6.85757L11.3164 5.97573C11.3854 5.35517 11.663 4.77566 12.1045 4.33413L15.3262 1.11343ZM13.165 5.39565C12.9648 5.59614 12.8381 5.85917 12.8066 6.14077L12.709 7.02261C12.7054 7.05445 12.7328 7.08181 12.7646 7.07827L13.6465 6.97964C13.9284 6.94825 14.192 6.82279 14.3926 6.62222L16.2256 4.78921L14.998 3.56264L13.165 5.39565ZM17.6133 2.17397C17.2746 1.83547 16.7254 1.83547 16.3867 2.17397L16.0586 2.5021L17.2861 3.72866L17.6143 3.40054C17.9524 3.06175 17.9518 2.51255 17.6133 2.17397Z"
    fill="currentColor"
  />
</svg>

<svg xmlns="http://www.w3.org/2000/svg" width="20" height="20" fill="none" data-fui-icon="true" viewBox="0 0 20 20"><path fill="currentColor" d="M10 2.375a.75.75 0 0 1 0 1.5H3.959a.917.917 0 0 0-.917.917v8.75c0 .506.41.916.917.916H7.21c.372 0 .733.131 1.018.37l1.72 1.443c.03.025.076.026.107 0l1.749-1.449a1.6 1.6 0 0 1 1.01-.364h3.228c.506 0 .917-.41.917-.916V9a.75.75 0 0 1 1.5 0v4.542a2.417 2.417 0 0 1-2.417 2.416h-3.229a.1.1 0 0 0-.052.02l-1.75 1.448a1.584 1.584 0 0 1-2.027-.006l-1.72-1.442a.1.1 0 0 0-.054-.02H3.959a2.417 2.417 0 0 1-2.417-2.416v-8.75a2.417 2.417 0 0 1 2.417-2.417zM5.938 8.313a.854.854 0 1 1-.002 1.708.854.854 0 0 1 .002-1.708m4.062 0a.855.855 0 1 1 0 1.71.855.855 0 0 1 0-1.71m5.326-7.2a2.367 2.367 0 0 1 3.349 3.35l-3.222 3.22a2.75 2.75 0 0 1-1.64.789l-.883.097a1.55 1.55 0 0 1-1.712-1.711l.098-.882c.07-.62.347-1.2.788-1.642zm-2.161 4.283c-.2.2-.327.463-.358.745l-.098.882a.05.05 0 0 0 .056.055l.881-.098a1.25 1.25 0 0 0 .747-.358l1.833-1.833-1.228-1.226zm4.448-3.222a.87.87 0 0 0-1.226 0l-.328.328 1.227 1.227.328-.328a.87.87 0 0 0 0-1.227"/></svg>
